X:1
T:Title
T:Rufty Tufty
T:Playford (1651)
T:D/G Voice - use 'g' drones
C:Composer
L:1/8
M:4/4
K:G
V:1 treble nm="Piano" snm="Pno."
V:1
"_Keys:" d4 d2 e2 | f4 d2 f2 | g2 g2 f3 A |1 d6 A2 :|2"_Keys:" ef || g2 f2 e2 d2 | d2 c2 B3 c | %7
w: 7 7 8|9 7 9|10 10 9 4|7 4|8 9|10 9 8 7|7 6 5 6|
 d2 d2 c2 B2 |"_Keys:" A4 G2 ef | g2 f2 e2 d2 | d3 c B2 Bc | d2 d2 c2 B2 |"_Keys:" A4 G4 |: %13
w: 7 7 6 5|4 3 8 9|10 9 8 7|7 6 5 5 6|7 7 6 5|4 3|
 B3 c d2 d2 | e2 c2 d4 | B3 c d2 d2 |"_Keys:" e2 c2 d2 Bc | d2 d2 c2 B2 | A4 G4 :| %19
w: 5 6 7 7|8 6 7|5 6 7 7|8 6 7 5 6|7 7 6 5|4 3|

